svg/camera_lock.svg

<svg xmlns="http://www.w3.org/2000/svg" viewBox="0 0 24 24"><path d="M4 4h3l2-2h6l2 2h3c1.11 0 2 .89 2 2v6c-.84-.63-1.87-1-3-1-.79 0-1.54.18-2.21.5C16.18 9.22 14.27 7 12 7c-2.76 0-5 2.24-5 5s2.24 5 5 5c.42 0 .84-.05 1.23-.15-.15.35-.23.74-.23 1.15v2H4a2 2 0 0 1-2-2V6a2 2 0 0 1 2-2m8 5c1.66 0 3 1.34 3 3s-1.34 3-3 3-3-1.34-3-3 1.34-3 3-3m11 9.3v3.5c0 .6-.6 1.2-1.3 1.2h-5.5c-.6 0-1.2-.6-1.2-1.3v-3.5c0-.6.6-1.2 1.2-1.2v-1.5c0-1.4 1.4-2.5 2.8-2.5s2.8 1.1 2.8 2.5V17c.6 0 1.2.6 1.2 1.3m-2.5-2.8c0-.8-.7-1.3-1.5-1.3s-1.5.5-1.5 1.3V17h3z"/></svg>

<svg xmlns="http://www.w3.org/2000/svg" id="mdi-camera-lock" viewBox="0 0 24 24"><path d="M4 4H7L9 2H15L17 4H20C21.11 4 22 4.89 22 6V12C21.16 11.37 20.13 11 19 11C18.21 11 17.46 11.18 16.79 11.5C16.18 9.22 14.27 7 12 7C9.24 7 7 9.24 7 12C7 14.76 9.24 17 12 17C12.42 17 12.84 16.95 13.23 16.85C13.08 17.2 13 17.59 13 18V20H4C2.9 20 2 19.11 2 18V6C2 4.89 2.9 4 4 4M12 9C13.66 9 15 10.34 15 12C15 13.66 13.66 15 12 15C10.34 15 9 13.66 9 12C9 10.34 10.34 9 12 9M23 18.3V21.8C23 22.4 22.4 23 21.7 23H16.2C15.6 23 15 22.4 15 21.7V18.2C15 17.6 15.6 17 16.2 17V15.5C16.2 14.1 17.6 13 19 13C20.4 13 21.8 14.1 21.8 15.5V17C22.4 17 23 17.6 23 18.3M20.5 15.5C20.5 14.7 19.8 14.2 19 14.2C18.2 14.2 17.5 14.7 17.5 15.5V17H20.5V15.5Z" /></svg>
